X: 299
T:Para le lop
M:3/8
L:1/16
S:Joseph Perrier
R:Bourre
A:Auvergne
Z:Stoney
K:D
8d2|e2a3g|agfed2|e2a3^g|a4   d2|e2a3g|agfed2|e2a3^g|a6|  H|
|:efgagf|!e2  (3(faf) d2   |cde2g2|(3(faf) e2  d2  |efgagf|e2  (3(faf) d
 I2  |cdegec |1d4  d2 :||2"D.C."d2 z2   ||! "Coda (last time)"d2  z efg|
a2 agfe|d2 z2 A2 |d2  ||
W:
W: From "Falaleiro" http://home.t-online.de/home/pheld/homepage.htm
